packages/nuxt/static/assets/logo.svg

<svg width="176" height="176" viewBox="0 0 176 176" fill="none" xmlns="http://www.w3.org/2000/svg">
<path fill-rule="evenodd" clip-rule="evenodd" d="M55.1004 9.39498C49.014 13.1798 43.0416 19.1521 31.0969 31.0969L31.0945 31.0993C19.1512 43.0425 13.1794 49.0144 9.39498 55.1004C-3.13174 75.2449 -3.13158 100.755 9.39498 120.9C13.179 126.985 19.15 132.956 31.0901 144.897L31.0955 144.902L31.0969 144.903C43.0416 156.848 49.014 162.82 55.1004 166.605C75.2448 179.132 100.755 179.132 120.9 166.605C126.986 162.82 132.958 156.848 144.903 144.903L144.903 144.903C156.848 132.958 162.82 126.986 166.605 120.9C179.132 100.755 179.132 75.2449 166.605 55.1004C162.82 49.014 156.848 43.0417 144.903 31.0969C132.958 19.1521 126.986 13.1798 120.9 9.39498C100.755 -3.13158 75.2448 -3.13174 55.1004 9.39498ZM113 61C119.904 61 125.5 55.4035 125.5 48.5C125.5 41.5965 119.904 36 113 36C106.096 36 100.5 41.5965 100.5 48.5C100.5 55.4035 106.096 61 113 61ZM75.5 76C75.5 70.4772 71.0228 66 65.5 66H50.5V103.5C50.5 124.211 67.2893 141 88 141C90.5685 141 93.0767 140.742 95.5 140.25V116H88C81.0964 116 75.5 110.404 75.5 103.5V76ZM100.5 138.866C115.065 133.718 125.5 119.828 125.5 103.5V66H110.5C104.977 66 100.5 70.4772 100.5 76V138.866Z" fill="#02C652"/>
</svg>

<svg xmlns="http://www.w3.org/2000/svg" width="176" height="176" fill="none" xmlns:v="https://vecta.io/nano"><path fill-rule="evenodd" d="M55.1 9.395c-6.086 3.785-12.059 9.757-24.003 21.702l-.002.002C19.151 43.043 13.179 49.014 9.395 55.1c-12.527 20.145-12.527 45.655 0 65.8 3.784 6.085 9.755 12.056 21.695 23.997l.005.005.001.001c11.945 11.945 17.917 17.917 24.004 21.702 20.144 12.527 45.655 12.527 65.8 0 6.086-3.785 12.058-9.757 24.003-21.702h0c11.945-11.945 17.917-17.917 21.702-24.003 12.527-20.145 12.527-45.655 0-65.8-3.785-6.086-9.757-12.059-21.702-24.003S126.986 13.18 120.9 9.395c-20.145-12.527-45.655-12.527-65.8 0zM113 61c6.904 0 12.5-5.596 12.5-12.5S119.904 36 113 36s-12.5 5.596-12.5 12.5S106.096 61 113 61zM75.5 76c0-5.523-4.477-10-10-10h-15v37.5c0 20.711 16.789 37.5 37.5 37.5 2.569 0 5.077-.258 7.5-.75V116H88c-6.904 0-12.5-5.596-12.5-12.5V76zm25 62.866c14.565-5.148 25-19.038 25-35.366V66h-15c-5.523 0-10 4.477-10 10v62.866z" fill="#02c652"/></svg>
